src/pos-icons/selection-marker.svg

<svg height="24" viewBox="0 0 24 24" width="24" xmlns="http://www.w3.org/2000/svg"><path d="m2 4c0-1.11.9-2 2-2h3v2h-3v3h-2zm20 0v3h-2v-3h-3v-2h3c1.1 0 2 .89 2 2m-20 16v-3h2v3h3v2h-3c-1.1 0-2-.89-2-2m8-18h4v2h-4zm0 18h4v2h-4zm-8-10h2v4h-2zm16.5 3c1.9 0 3.5 1.6 3.5 3.5 0 2.6-3.5 6.5-3.5 6.5s-3.5-3.9-3.5-6.5c0-1.9 1.6-3.5 3.5-3.5m0 4.8c.7 0 1.3-.6 1.2-1.2 0-.6-.6-1.2-1.2-1.2s-1.2.5-1.2 1.2c0 .6.5 1.2 1.2 1.2m1.5-7.8h2v2.34c-.58-.5-1.26-.89-2-1.11z"/></svg>

<?xml version="1.0" encoding="UTF-8"?><!DOCTYPE svg PUBLIC "-//W3C//DTD SVG 1.1//EN" "http://www.w3.org/Graphics/SVG/1.1/DTD/svg11.dtd"><svg xmlns="http://www.w3.org/2000/svg" xmlns:xlink="http://www.w3.org/1999/xlink" version="1.1" id="mdi-selection-marker" width="24" height="24" viewBox="0 0 24 24"><path d="M2 4C2 2.89 2.9 2 4 2H7V4H4V7H2V4M22 4V7H20V4H17V2H20C21.1 2 22 2.89 22 4M2 20V17H4V20H7V22H4C2.9 22 2 21.11 2 20M10 2H14V4H10V2M10 20H14V22H10V20M2 10H4V14H2V10M18.5 13C20.4 13 22 14.6 22 16.5C22 19.1 18.5 23 18.5 23C18.5 23 15 19.1 15 16.5C15 14.6 16.6 13 18.5 13M18.5 17.8C19.2 17.8 19.8 17.2 19.7 16.6C19.7 16 19.1 15.4 18.5 15.4C17.9 15.4 17.3 15.9 17.3 16.6C17.3 17.2 17.8 17.8 18.5 17.8M20 10H22V12.34C21.42 11.84 20.74 11.45 20 11.23V10Z" /></svg>
